logo/origin.svg

<?xml version="1.0" encoding="UTF-8"?>
<svg width="256px" height="344px" viewBox="0 0 256 344" version="1.1" xmlns="http://www.w3.org/2000/svg" xmlns:xlink="http://www.w3.org/1999/xlink" preserveAspectRatio="xMidYMid">
    <defs>
        <linearGradient x1="50%" y1="0%" x2="50%" y2="100%" id="linearGradient-1">
            <stop stop-color="#FF9900" offset="0%"></stop>
            <stop stop-color="#F05A22" offset="100%"></stop>
        </linearGradient>
    </defs>
    <g>
        <path d="M127.615795,2.37396105 C128.316104,4.17579665 127.105155,5.82443974 126.113051,7.21776199 C119.08808,17.1752744 113.565286,28.3102833 111.362232,40.2811829 C110.500866,42.7381045 110.691102,44.5685497 111.362232,44.7728064 C124.996364,43.576446 140.374543,43.7140513 153.797123,46.5809395 C178.220385,51.4976892 201.046067,63.8552175 218.590256,81.5234192 C236.083381,99.0092488 248.360665,121.667149 253.328479,145.908039 C258.836114,172.15502 255.757675,200.094414 244.742404,224.53956 C221.384195,274.45843 182.006429,316.681201 133.82374,343.446118 C132.269931,344.168312 130.030402,344.197492 128.96535,342.650977 C127.710629,341.031513 128.228565,338.726331 129.468695,337.252765 C135.968434,328.185227 140.50585,317.760843 142.97152,306.891471 C143.445688,304.637352 144.094932,302.354055 143.89797,300.034283 C143.102829,298.99841 141.78975,299.31209 140.673633,299.348564 C117.286244,301.690221 93.2204323,297.510254 72.0871623,287.180702 C49.4511468,276.274855 30.2437253,258.446166 17.5433376,236.773075 C5.77669476,216.836165 -0.409364314,193.616559 0.0210336979,170.455313 C0.101277286,149.198029 5.90070774,128.115824 16.113541,109.506582 C39.8875579,63.8625124 77.2154636,25.3455411 122.283238,0.462702249 C124.172612,-0.587760605 126.966551,0.192791655 127.615795,2.37396105 L127.615795,2.37396105 Z M120.970159,122.440406 C107.058821,124.307896 94.2271262,132.478162 86.4361931,144.120792 C81.1619942,152.115982 77.9668364,161.613917 78.0324904,171.22857 C77.6385667,184.11133 82.7741629,197.015974 91.6739175,206.295063 C99.4502601,214.669586 110.253979,220.126157 121.582929,221.585133 C133.116136,223.109763 145.159985,220.410657 154.92783,214.071405 C164.856163,207.768628 172.420955,197.818411 175.80578,186.547821 C182.15962,166.982949 174.543765,144.062434 157.969796,131.974816 C147.560001,124.052575 133.911279,120.536442 120.970159,122.440406 L120.970159,122.440406 L120.970159,122.440406 Z" fill="url(#linearGradient-1)"></path>
    </g>
</svg>

<svg viewBox="0 0 256 344" xmlns="http://www.w3.org/2000/svg"><defs><linearGradient id="a" x1="50%" x2="50%" y1="0%" y2="100%"><stop offset="0%" stop-color="#F90"/><stop offset="100%" stop-color="#F05A22"/></linearGradient></defs><path fill="url(#a)" d="M127.61 2.37c.7 1.8-.52 3.45-1.51 4.84 -7.03 9.95-12.55 21.09-14.76 33.06 -.87 2.45-.68 4.28 0 4.49 13.63-1.2 29.01-1.06 42.43 1.8 24.42 4.91 47.24 17.27 64.79 34.94 17.49 17.48 29.77 40.14 34.73 64.38 5.5 26.24 2.42 54.18-8.59 78.63 -23.36 49.91-62.74 92.14-110.92 118.9 -1.56.72-3.8.75-4.86-.8 -1.26-1.62-.74-3.93.5-5.4 6.49-9.07 11.03-19.5 13.5-30.37 .47-2.26 1.12-4.54.92-6.86 -.8-1.04-2.11-.73-3.23-.69 -23.39 2.34-47.46-1.84-68.59-12.17 -22.64-10.91-41.85-28.74-54.55-50.41C5.7 216.77-.49 193.55-.06 170.39c.08-21.26 5.87-42.34 16.09-60.95C39.8 63.79 77.13 25.27 122.19.39c1.88-1.06 4.68-.27 5.33 1.91v0Zm-6.65 120.06c-13.92 1.86-26.75 10.03-34.54 21.68 -5.28 7.99-8.47 17.49-8.41 27.1 -.4 12.88 4.74 25.78 13.64 35.06 7.77 8.37 18.58 13.83 29.9 15.29 11.53 1.52 23.57-1.18 33.34-7.52 9.92-6.31 17.49-16.26 20.87-27.53 6.35-19.57-1.27-42.49-17.84-54.58 -10.41-7.93-24.06-11.44-37-9.54v0 0Z"/></svg>
